fig/cycle3x3.svg

<?xml version="1.0" encoding="UTF-8" standalone="no"?>
<svg
   xmlns:dc="http://purl.org/dc/elements/1.1/"
   xmlns:cc="http://creativecommons.org/ns#"
   xmlns:rdf="http://www.w3.org/1999/02/22-rdf-syntax-ns#"
   xmlns:svg="http://www.w3.org/2000/svg"
   xmlns="http://www.w3.org/2000/svg"
   xmlns:xlink="http://www.w3.org/1999/xlink"
   xmlns:sodipodi="http://sodipodi.sourceforge.net/DTD/sodipodi-0.dtd"
   xmlns:inkscape="http://www.inkscape.org/namespaces/inkscape"
   viewBox="0 0 600 400"
   id="svg2"
   version="1.1"
   inkscape:version="0.48.4 r9939"
   width="100%"
   height="100%"
   sodipodi:docname="cycle3x3.svg">
  <metadata
     id="metadata200">
    <rdf:RDF>
      <cc:Work
         rdf:about="">
        <dc:format>image/svg+xml</dc:format>
        <dc:type
           rdf:resource="http://purl.org/dc/dcmitype/StillImage" />
      </cc:Work>
    </rdf:RDF>
  </metadata>
  <sodipodi:namedview
     pagecolor="#ffffff"
     bordercolor="#666666"
     borderopacity="1"
     objecttolerance="10"
     gridtolerance="10"
     guidetolerance="10"
     inkscape:pageopacity="0"
     inkscape:pageshadow="2"
     inkscape:window-width="1920"
     inkscape:window-height="1056"
     id="namedview198"
     showgrid="false"
     inkscape:zoom="2.2725"
     inkscape:cx="300"
     inkscape:cy="265.68193"
     inkscape:window-x="0"
     inkscape:window-y="24"
     inkscape:window-maximized="1"
     inkscape:current-layer="svg2" />
  <desc
     id="desc4">Produced by GNUPLOT 4.4 patchlevel 3 </desc>
  <defs
     id="defs6">
    <circle
       id="gpDot"
       r="0.5"
       stroke-width="0.5" />
    <path
       id="gpPt0"
       stroke-width="0.167"
       stroke="currentColor"
       d="M-1,0 h2 M0,-1 v2" />
    <path
       id="gpPt1"
       stroke-width="0.167"
       stroke="currentColor"
       d="M-1,-1 L1,1 M1,-1 L-1,1" />
    <path
       id="gpPt2"
       stroke-width="0.167"
       stroke="currentColor"
       d="M-1,0 L1,0 M0,-1 L0,1 M-1,-1 L1,1 M-1,1 L1,-1" />
    <rect
       id="gpPt3"
       stroke-width="0.167"
       stroke="currentColor"
       x="-1"
       y="-1"
       width="2"
       height="2" />
    <rect
       id="gpPt4"
       stroke-width="0.167"
       stroke="currentColor"
       fill="currentColor"
       x="-1"
       y="-1"
       width="2"
       height="2" />
    <circle
       id="gpPt5"
       stroke-width="0.167"
       stroke="currentColor"
       cx="0"
       cy="0"
       r="1" />
    <use
       xlink:href="#gpPt5"
       id="gpPt6"
       fill="currentColor"
       stroke="none" />
    <path
       id="gpPt7"
       stroke-width="0.167"
       stroke="currentColor"
       d="M0,-1.33 L-1.33,0.67 L1.33,0.67 z" />
    <use
       xlink:href="#gpPt7"
       id="gpPt8"
       fill="currentColor"
       stroke="none" />
    <use
       xlink:href="#gpPt7"
       id="gpPt9"
       stroke="currentColor"
       transform="rotate(180)" />
    <use
       xlink:href="#gpPt9"
       id="gpPt10"
       fill="currentColor"
       stroke="none" />
    <use
       xlink:href="#gpPt3"
       id="gpPt11"
       stroke="currentColor"
       transform="rotate(45)" />
    <use
       xlink:href="#gpPt11"
       id="gpPt12"
       fill="currentColor"
       stroke="none" />
  </defs>
  <g
     style="fill:none; color:white; stroke:currentColor; stroke-width:1.00; stroke-linecap:butt; stroke-linejoin:miter"
     id="g22" />
  <path
     style="color:#000000;fill:none;stroke:currentColor;stroke-width:1;stroke-linecap:butt;stroke-linejoin:miter"
     inkscape:connector-curvature="0"
     id="path26"
     d="m 96.8,273.1 12,0 m 457.5,0 -12,0" />
  <g
     id="g28"
     style="font-size:20px;text-anchor:end;color:#000000;fill:#000000;stroke:none;font-family:HelveticaNeue"
     transform="translate(85.6,279.1)">
    <text
       id="text30">
      <tspan
         id="tspan32">0.4</tspan>
    </text>
  </g>
  <path
     style="color:#000000;fill:none;stroke:currentColor;stroke-width:1;stroke-linecap:butt;stroke-linejoin:miter"
     inkscape:connector-curvature="0"
     id="path34"
     d="m 96.8,223 12,0 m 457.5,0 -12,0" />
  <g
     id="g36"
     style="font-size:20px;text-anchor:end;color:#000000;fill:#000000;stroke:none;font-family:HelveticaNeue"
     transform="translate(85.6,229)">
    <text
       id="text38">
      <tspan
         id="tspan40">0.5</tspan>
    </text>
  </g>
  <path
     style="color:#000000;fill:none;stroke:currentColor;stroke-width:1;stroke-linecap:butt;stroke-linejoin:miter"
     inkscape:connector-curvature="0"
     id="path42"
     d="m 96.8,172.8 12,0 m 457.5,0 -12,0" />
  <g
     id="g44"
     style="font-size:20px;text-anchor:end;color:#000000;fill:#000000;stroke:none;font-family:HelveticaNeue"
     transform="translate(85.6,178.8)">
    <text
       id="text46">
      <tspan
         id="tspan48">0.6</tspan>
    </text>
  </g>
  <path
     style="color:#000000;fill:none;stroke:currentColor;stroke-width:1;stroke-linecap:butt;stroke-linejoin:miter"
     inkscape:connector-curvature="0"
     id="path50"
     d="m 96.8,122.7 12,0 m 457.5,0 -12,0" />
  <g
     id="g52"
     style="font-size:20px;text-anchor:end;color:#000000;fill:#000000;stroke:none;font-family:HelveticaNeue"
     transform="translate(85.6,128.7)">
    <text
       id="text54">
      <tspan
         id="tspan56">0.7</tspan>
    </text>
  </g>
  <path
     style="color:#000000;fill:none;stroke:currentColor;stroke-width:1;stroke-linecap:butt;stroke-linejoin:miter"
     inkscape:connector-curvature="0"
     id="path58"
     d="m 96.8,72.6 12,0 m 457.5,0 -12,0" />
  <g
     id="g60"
     style="font-size:20px;text-anchor:end;color:#000000;fill:#000000;stroke:none;font-family:HelveticaNeue"
     transform="translate(85.6,78.6)">
    <text
       id="text62">
      <tspan
         id="tspan64">0.8</tspan>
    </text>
  </g>
  <path
     style="color:#000000;fill:none;stroke:currentColor;stroke-width:1;stroke-linecap:butt;stroke-linejoin:miter"
     inkscape:connector-curvature="0"
     id="path66"
     d="m 163.9,323.2 0,-12 m 0,-288.7 0,12" />
  <g
     id="g68"
     style="font-size:20px;text-anchor:middle;color:#000000;fill:#000000;stroke:none;font-family:HelveticaNeue"
     transform="translate(163.9,353.2)">
    <text
       id="text70">
      <tspan
         id="tspan72">0</tspan>
    </text>
  </g>
  <path
     style="color:#000000;fill:none;stroke:currentColor;stroke-width:1;stroke-linecap:butt;stroke-linejoin:miter"
     inkscape:connector-curvature="0"
     id="path74"
     d="m 230.9,323.2 0,-12 m 0,-288.7 0,12" />
  <g
     id="g76"
     style="font-size:20px;text-anchor:middle;color:#000000;fill:#000000;stroke:none;font-family:HelveticaNeue"
     transform="translate(230.9,353.2)">
    <text
       id="text78">
      <tspan
         id="tspan80">1</tspan>
    </text>
  </g>
  <path
     style="color:#000000;fill:none;stroke:currentColor;stroke-width:1;stroke-linecap:butt;stroke-linejoin:miter"
     inkscape:connector-curvature="0"
     id="path82"
     d="m 298,323.2 0,-12 m 0,-288.7 0,12" />
  <g
     id="g84"
     style="font-size:20px;text-anchor:middle;color:#000000;fill:#000000;stroke:none;font-family:HelveticaNeue"
     transform="translate(298,353.2)">
    <text
       id="text86">
      <tspan
         id="tspan88">2</tspan>
    </text>
  </g>
  <path
     style="color:#000000;fill:none;stroke:currentColor;stroke-width:1;stroke-linecap:butt;stroke-linejoin:miter"
     inkscape:connector-curvature="0"
     id="path90"
     d="m 365.1,323.2 0,-12 m 0,-288.7 0,12" />
  <g
     id="g92"
     style="font-size:20px;text-anchor:middle;color:#000000;fill:#000000;stroke:none;font-family:HelveticaNeue"
     transform="translate(365.1,353.2)">
    <text
       id="text94">
      <tspan
         id="tspan96">3</tspan>
    </text>
  </g>
  <path
     style="color:#000000;fill:none;stroke:currentColor;stroke-width:1;stroke-linecap:butt;stroke-linejoin:miter"
     inkscape:connector-curvature="0"
     id="path98"
     d="m 432.2,323.2 0,-12 m 0,-288.7 0,12" />
  <g
     id="g100"
     style="font-size:20px;text-anchor:middle;color:#000000;fill:#000000;stroke:none;font-family:HelveticaNeue"
     transform="translate(432.2,353.2)">
    <text
       id="text102">
      <tspan
         id="tspan104">4</tspan>
    </text>
  </g>
  <path
     style="color:#000000;fill:none;stroke:currentColor;stroke-width:1;stroke-linecap:butt;stroke-linejoin:miter"
     inkscape:connector-curvature="0"
     id="path106"
     d="m 499.2,323.2 0,-12 m 0,-288.7 0,12" />
  <g
     id="g108"
     style="font-size:20px;text-anchor:middle;color:#000000;fill:#000000;stroke:none;font-family:HelveticaNeue"
     transform="translate(499.2,353.2)">
    <text
       id="text110">
      <tspan
         id="tspan112">5</tspan>
    </text>
  </g>
  <path
     style="color:#000000;fill:none;stroke:currentColor;stroke-width:1;stroke-linecap:butt;stroke-linejoin:miter"
     inkscape:connector-curvature="0"
     id="path114"
     d="m 96.8,22.5 0,300.7 469.5,0 0,-300.7 -469.5,0 z" />
  <g
     id="g116"
     style="font-size:20px;text-anchor:middle;color:#000000;fill:#000000;stroke:none;font-family:HelveticaNeue"
     transform="matrix(0,-1,1,0,23.6,172.9)">
    <text
       id="text118">
      <tspan
         id="tspan120">dynamical robustness</tspan>
    </text>
  </g>
  <g
     id="g122"
     style="font-size:20px;text-anchor:middle;color:#000000;fill:#000000;stroke:none;font-family:HelveticaNeue"
     transform="translate(331.5,389.2)">
    <text
       id="text124">
      <tspan
         id="tspan126">number of cycles</tspan>
    </text>
  </g>
  <a
     xlink:title="Plot #1"
     id="a128">
    <g
       style="fill:none; color:red; stroke:currentColor; stroke-width:1.00; stroke-linecap:butt; stroke-linejoin:miter"
       id="g130">
      <use
         xlink:href="#gpPt6"
         transform="translate(163.9,225.1) scale(4.20)"
         color="gray"
         id="use132" />
      <use
         xlink:href="#gpPt6"
         transform="translate(230.9,225.2) scale(4.20)"
         color="gray"
         id="use134" />
      <use
         xlink:href="#gpPt6"
         transform="translate(163.9,159.6) scale(4.20)"
         color="gray"
         id="use136" />
      <use
         xlink:href="#gpPt6"
         transform="translate(230.9,171.8) scale(4.20)"
         color="gray"
         id="use138" />
      <use
         xlink:href="#gpPt6"
         transform="translate(298.0,225.1) scale(4.20)"
         color="gray"
         id="use140" />
      <use
         xlink:href="#gpPt6"
         transform="translate(298.0,270.6) scale(4.20)"
         color="gray"
         id="use142" />
      <use
         xlink:href="#gpPt6"
         transform="translate(230.9,258.5) scale(4.20)"
         color="gray"
         id="use144" />
      <use
         xlink:href="#gpPt6"
         transform="translate(230.9,174.6) scale(4.20)"
         color="gray"
         id="use146" />
      <use
         xlink:href="#gpPt6"
         transform="translate(298.0,269.3) scale(4.20)"
         color="gray"
         id="use148" />
      <use
         xlink:href="#gpPt6"
         transform="translate(163.9,126.5) scale(4.20)"
         color="gray"
         id="use150" />
      <use
         xlink:href="#gpPt6"
         transform="translate(230.9,169.9) scale(4.20)"
         color="gray"
         id="use152" />
      <use
         xlink:href="#gpPt6"
         transform="translate(163.9,120.1) scale(4.20)"
         color="gray"
         id="use154" />
      <use
         xlink:href="#gpPt6"
         transform="translate(298.0,183.7) scale(4.20)"
         color="gray"
         id="use156" />
      <use
         xlink:href="#gpPt6"
         transform="translate(365.1,228.3) scale(4.20)"
         color="gray"
         id="use158" />
      <use
         xlink:href="#gpPt6"
         transform="translate(298.0,199.1) scale(4.20)"
         color="gray"
         id="use160" />
      <use
         xlink:href="#gpPt6"
         transform="translate(298.0,226.7) scale(4.20)"
         color="gray"
         id="use162" />
      <use
         xlink:href="#gpPt6"
         transform="translate(230.9,138.4) scale(4.20)"
         color="gray"
         id="use164" />
      <use
         xlink:href="#gpPt6"
         transform="translate(365.1,236.2) scale(4.20)"
         color="gray"
         id="use166" />
      <use
         xlink:href="#gpPt6"
         transform="translate(298.0,179.5) scale(4.20)"
         color="gray"
         id="use168" />
      <use
         xlink:href="#gpPt6"
         transform="translate(230.9,144.7) scale(4.20)"
         color="gray"
         id="use170" />
      <use
         xlink:href="#gpPt6"
         transform="translate(163.9,102.0) scale(4.20)"
         color="gray"
         id="use172" />
      <use
         xlink:href="#gpPt6"
         transform="translate(230.9,174.9) scale(4.20)"
         color="gray"
         id="use174" />
      <use
         xlink:href="#gpPt6"
         transform="translate(365.1,186.7) scale(4.20)"
         color="gray"
         id="use176" />
      <use
         xlink:href="#gpPt6"
         transform="translate(499.2,240.5) scale(4.20)"
         color="gray"
         id="use178" />
      <use
         xlink:href="#gpPt6"
         transform="translate(365.1,176.9) scale(4.20)"
         color="gray"
         id="use180" />
      <use
         xlink:href="#gpPt6"
         transform="translate(230.9,116.1) scale(4.20)"
         color="gray"
         id="use182" />
      <use
         xlink:href="#gpPt6"
         transform="translate(298.0,151.9) scale(4.20)"
         color="gray"
         id="use184" />
      <use
         xlink:href="#gpPt6"
         transform="translate(298.0,158.9) scale(4.20)"
         color="gray"
         id="use186" />
      <use
         xlink:href="#gpPt6"
         transform="translate(499.2,183.9) scale(4.20)"
         color="gray"
         id="use188" />
      <use
         xlink:href="#gpPt6"
         transform="translate(365.1,149.2) scale(4.20)"
         color="gray"
         id="use190" />
      <use
         xlink:href="#gpPt6"
         transform="translate(499.2,155.3) scale(4.20)"
         color="gray"
         id="use192" />
    </g>
  </a>
  <g
     style="fill:none; color:black; stroke:currentColor; stroke-width:1.00; stroke-linecap:butt; stroke-linejoin:miter"
     id="g194">
    <path
       d="M96.8,22.5 L96.8,323.2 L566.3,323.2 L566.3,22.5 L96.8,22.5 Z "
       id="path196" />
  </g>
</svg>

<?xml version="1.0" encoding="utf-8"  standalone="no"?>
<!DOCTYPE svg PUBLIC "-//W3C//DTD SVG 1.1//EN" 
 "http://www.w3.org/Graphics/SVG/1.1/DTD/svg11.dtd">
<svg viewBox="0 0 600 400"
 xmlns="http://www.w3.org/2000/svg"
 xmlns:xlink="http://www.w3.org/1999/xlink"
>

<desc>Produced by GNUPLOT 4.4 patchlevel 3 </desc>

<defs>

	<circle id='gpDot' r='0.5' stroke-width='0.5'/>
	<path id='gpPt0' stroke-width='0.167' stroke='currentColor' d='M-1,0 h2 M0,-1 v2'/>
	<path id='gpPt1' stroke-width='0.167' stroke='currentColor' d='M-1,-1 L1,1 M1,-1 L-1,1'/>
	<path id='gpPt2' stroke-width='0.167' stroke='currentColor' d='M-1,0 L1,0 M0,-1 L0,1 M-1,-1 L1,1 M-1,1 L1,-1'/>
	<rect id='gpPt3' stroke-width='0.167' stroke='currentColor' x='-1' y='-1' width='2' height='2'/>
	<rect id='gpPt4' stroke-width='0.167' stroke='currentColor' fill='currentColor' x='-1' y='-1' width='2' height='2'/>
	<circle id='gpPt5' stroke-width='0.167' stroke='currentColor' cx='0' cy='0' r='1'/>
	<use xlink:href='#gpPt5' id='gpPt6' fill='currentColor' stroke='none'/>
	<path id='gpPt7' stroke-width='0.167' stroke='currentColor' d='M0,-1.33 L-1.33,0.67 L1.33,0.67 z'/>
	<use xlink:href='#gpPt7' id='gpPt8' fill='currentColor' stroke='none'/>
	<use xlink:href='#gpPt7' id='gpPt9' stroke='currentColor' transform='rotate(180)'/>
	<use xlink:href='#gpPt9' id='gpPt10' fill='currentColor' stroke='none'/>
	<use xlink:href='#gpPt3' id='gpPt11' stroke='currentColor' transform='rotate(45)'/>
	<use xlink:href='#gpPt11' id='gpPt12' fill='currentColor' stroke='none'/>
</defs>
<g style="fill:none; color:white; stroke:currentColor; stroke-width:1.00; stroke-linecap:butt; stroke-linejoin:miter">
</g>
<g style="fill:none; color:black; stroke:currentColor; stroke-width:1.00; stroke-linecap:butt; stroke-linejoin:miter">
	<path  d='M96.8,273.1 L108.8,273.1 M566.3,273.1 L554.3,273.1 '></path>
	<g transform="translate(85.6,279.1)" style="stroke:none; fill:black; font-family:HelveticaNeue; font-size:16.00pt; text-anchor:end">
		<text><tspan> 0.4</tspan>
		</text>
	</g>
	<path  d='M96.8,223.0 L108.8,223.0 M566.3,223.0 L554.3,223.0 '></path>
	<g transform="translate(85.6,229.0)" style="stroke:none; fill:black; font-family:HelveticaNeue; font-size:16.00pt; text-anchor:end">
		<text><tspan> 0.5</tspan>
		</text>
	</g>
	<path  d='M96.8,172.8 L108.8,172.8 M566.3,172.8 L554.3,172.8 '></path>
	<g transform="translate(85.6,178.8)" style="stroke:none; fill:black; font-family:HelveticaNeue; font-size:16.00pt; text-anchor:end">
		<text><tspan> 0.6</tspan>
		</text>
	</g>
	<path  d='M96.8,122.7 L108.8,122.7 M566.3,122.7 L554.3,122.7 '></path>
	<g transform="translate(85.6,128.7)" style="stroke:none; fill:black; font-family:HelveticaNeue; font-size:16.00pt; text-anchor:end">
		<text><tspan> 0.7</tspan>
		</text>
	</g>
	<path  d='M96.8,72.6 L108.8,72.6 M566.3,72.6 L554.3,72.6 '></path>
	<g transform="translate(85.6,78.6)" style="stroke:none; fill:black; font-family:HelveticaNeue; font-size:16.00pt; text-anchor:end">
		<text><tspan> 0.8</tspan>
		</text>
	</g>
	<path  d='M163.9,323.2 L163.9,311.2 M163.9,22.5 L163.9,34.5 '></path>
	<g transform="translate(163.9,353.2)" style="stroke:none; fill:black; font-family:HelveticaNeue; font-size:16.00pt; text-anchor:middle">
		<text><tspan> 0</tspan>
		</text>
	</g>
	<path  d='M230.9,323.2 L230.9,311.2 M230.9,22.5 L230.9,34.5 '></path>
	<g transform="translate(230.9,353.2)" style="stroke:none; fill:black; font-family:HelveticaNeue; font-size:16.00pt; text-anchor:middle">
		<text><tspan> 1</tspan>
		</text>
	</g>
	<path  d='M298.0,323.2 L298.0,311.2 M298.0,22.5 L298.0,34.5 '></path>
	<g transform="translate(298.0,353.2)" style="stroke:none; fill:black; font-family:HelveticaNeue; font-size:16.00pt; text-anchor:middle">
		<text><tspan> 2</tspan>
		</text>
	</g>
	<path  d='M365.1,323.2 L365.1,311.2 M365.1,22.5 L365.1,34.5 '></path>
	<g transform="translate(365.1,353.2)" style="stroke:none; fill:black; font-family:HelveticaNeue; font-size:16.00pt; text-anchor:middle">
		<text><tspan> 3</tspan>
		</text>
	</g>
	<path  d='M432.2,323.2 L432.2,311.2 M432.2,22.5 L432.2,34.5 '></path>
	<g transform="translate(432.2,353.2)" style="stroke:none; fill:black; font-family:HelveticaNeue; font-size:16.00pt; text-anchor:middle">
		<text><tspan> 4</tspan>
		</text>
	</g>
	<path  d='M499.2,323.2 L499.2,311.2 M499.2,22.5 L499.2,34.5 '></path>
	<g transform="translate(499.2,353.2)" style="stroke:none; fill:black; font-family:HelveticaNeue; font-size:16.00pt; text-anchor:middle">
		<text><tspan> 5</tspan>
		</text>
	</g>
	<path  d='M96.8,22.5 L96.8,323.2 L566.3,323.2 L566.3,22.5 L96.8,22.5 Z '></path>
	<g transform="translate(23.6,172.9) rotate(270)" style="stroke:none; fill:black; font-family:HelveticaNeue; font-size:16.00pt; text-anchor:middle">
		<text><tspan>probability of stability to perturbation</tspan>
		</text>
	</g>
	<g transform="translate(331.5,389.2)" style="stroke:none; fill:black; font-family:HelveticaNeue; font-size:16.00pt; text-anchor:middle">
		<text><tspan>number of cycles</tspan>
		</text>
	</g>
</g>
	<a xlink:title="Plot #1">
<g style="fill:none; color:red; stroke:currentColor; stroke-width:1.00; stroke-linecap:butt; stroke-linejoin:miter">
	<use xlink:href='#gpPt6' transform='translate(163.9,225.1) scale(4.20)' color='gray'/>
	<use xlink:href='#gpPt6' transform='translate(230.9,225.2) scale(4.20)' color='gray'/>
	<use xlink:href='#gpPt6' transform='translate(163.9,159.6) scale(4.20)' color='gray'/>
	<use xlink:href='#gpPt6' transform='translate(230.9,171.8) scale(4.20)' color='gray'/>
	<use xlink:href='#gpPt6' transform='translate(298.0,225.1) scale(4.20)' color='gray'/>
	<use xlink:href='#gpPt6' transform='translate(298.0,270.6) scale(4.20)' color='gray'/>
	<use xlink:href='#gpPt6' transform='translate(230.9,258.5) scale(4.20)' color='gray'/>
	<use xlink:href='#gpPt6' transform='translate(230.9,174.6) scale(4.20)' color='gray'/>
	<use xlink:href='#gpPt6' transform='translate(298.0,269.3) scale(4.20)' color='gray'/>
	<use xlink:href='#gpPt6' transform='translate(163.9,126.5) scale(4.20)' color='gray'/>
	<use xlink:href='#gpPt6' transform='translate(230.9,169.9) scale(4.20)' color='gray'/>
	<use xlink:href='#gpPt6' transform='translate(163.9,120.1) scale(4.20)' color='gray'/>
	<use xlink:href='#gpPt6' transform='translate(298.0,183.7) scale(4.20)' color='gray'/>
	<use xlink:href='#gpPt6' transform='translate(365.1,228.3) scale(4.20)' color='gray'/>
	<use xlink:href='#gpPt6' transform='translate(298.0,199.1) scale(4.20)' color='gray'/>
	<use xlink:href='#gpPt6' transform='translate(298.0,226.7) scale(4.20)' color='gray'/>
	<use xlink:href='#gpPt6' transform='translate(230.9,138.4) scale(4.20)' color='gray'/>
	<use xlink:href='#gpPt6' transform='translate(365.1,236.2) scale(4.20)' color='gray'/>
	<use xlink:href='#gpPt6' transform='translate(298.0,179.5) scale(4.20)' color='gray'/>
	<use xlink:href='#gpPt6' transform='translate(230.9,144.7) scale(4.20)' color='gray'/>
	<use xlink:href='#gpPt6' transform='translate(163.9,102.0) scale(4.20)' color='gray'/>
	<use xlink:href='#gpPt6' transform='translate(230.9,174.9) scale(4.20)' color='gray'/>
	<use xlink:href='#gpPt6' transform='translate(365.1,186.7) scale(4.20)' color='gray'/>
	<use xlink:href='#gpPt6' transform='translate(499.2,240.5) scale(4.20)' color='gray'/>
	<use xlink:href='#gpPt6' transform='translate(365.1,176.9) scale(4.20)' color='gray'/>
	<use xlink:href='#gpPt6' transform='translate(230.9,116.1) scale(4.20)' color='gray'/>
	<use xlink:href='#gpPt6' transform='translate(298.0,151.9) scale(4.20)' color='gray'/>
	<use xlink:href='#gpPt6' transform='translate(298.0,158.9) scale(4.20)' color='gray'/>
	<use xlink:href='#gpPt6' transform='translate(499.2,183.9) scale(4.20)' color='gray'/>
	<use xlink:href='#gpPt6' transform='translate(365.1,149.2) scale(4.20)' color='gray'/>
	<use xlink:href='#gpPt6' transform='translate(499.2,155.3) scale(4.20)' color='gray'/>
</g>
	</a>
<g style="fill:none; color:black; stroke:currentColor; stroke-width:1.00; stroke-linecap:butt; stroke-linejoin:miter">
	<path  d='M96.8,22.5 L96.8,323.2 L566.3,323.2 L566.3,22.5 L96.8,22.5 Z '></path>
</g>
</svg>
